X:1
T:The Flooded Road to Glenties
R:reel
C:Jimmy McHugh
O:Donegal, late 1980s
D:Allie Bennett, It's About Time
Z:Paul Stewart Cranford (P.S.C.), <http://www.cranfordpub.com>
L:1/8
M:4/4
K:Bdor
|:A|FB B/B/B cfec|cfec BAFE|FB B/B/B cfaf|gfeg f2 fe|
fafe cfec|B2 BA Bcde|affe fecB|cfec B/B/B B:|
|:c|dB B/B/B aBgB|fB B/B/B cBAc|dB B/B/B abaf|gfeg f2 fe|
fafe cfec|B2 BA Bcde|affe fecB|cfec B/B/B B:|
